collections/phosporicons/bold/password-bold.svg

<svg xmlns="http://www.w3.org/2000/svg" viewBox="0 0 256 256" width="20" height="20"><path fill="none" d="M0 0h256v256H0z"/><path fill="none" stroke="#000" stroke-linecap="round" stroke-linejoin="round" stroke-width="24" d="M36 56v144m68-104v32m-30.4-9.9L104 128m-18.8 25.9L104 128m18.8 25.9L104 128m30.4-9.9L104 128m96-32v32m-30.4-9.9L200 128m-18.8 25.9L200 128m18.8 25.9L200 128m30.4-9.9L200 128"/></svg>

<svg xmlns="http://www.w3.org/2000/svg" viewBox="0 0 256 256" width="20" height="20"><path fill="none" d="M0 0h256v256H0z"/><path fill="none" stroke="#000" stroke-linecap="round" stroke-linejoin="round" stroke-width="24" d="M36 56v144M104 96v32M73.6 118.1L104 128M85.2 153.9L104 128M122.8 153.9L104 128M134.4 118.1L104 128M200 96v32M169.6 118.1L200 128M181.2 153.9L200 128M218.8 153.9L200 128M230.4 118.1L200 128"/></svg>
